!!!OTL: LENORE FUHR UMS MORGENROTH
!!!ARE: Europa, Mitteleuropa, Deutschland
!!!SCT: B0135
!!!YEM: Copyright 1995, estate of Helmut Schaffrath.
**kern
*ICvox
*Ivox
*M2/4
*k[f#c#g#]
*A:
{8e
=1
8a
8b
8cc#
8dd
=2
8ee
8dd
8dd}
{8ee
=3
8ee
16dd
16cc#
8b
8a
=4
8a
8g#
8a}
{8e
=5
8a
8b
8cc#
8dd
=6
8ee
8dd
8dd}
{8ee
=7
8ee
16dd
16cc#
8b
8a
=8
8a
8g#
8a}
{8b
=9
8ee
8b
8b
8cc#
=10
8dd
8b
8cc#}
{8a
=11
8b
8g#
8a
8cc#
=12
8dd
8b
8cc#}
{8ee
=13
8.ee
16dd
8dd
8dd
=14
8dd
8cc#}
{4cc#
=15
8dd
8cc#
8b
8a
=16
4b
8a}
==
!!!AGN: Ballade, Romanze
!!!ONB: ESAC (Essen Associative Code) Database: BOEHME
!!!AMT: simple duple
!!!AIN: vox
!!!EED: Helmut Schaffrath
!!!EEV: 1.0
*-
